!!!COM: Corelli, Arcangelo
!!!OTL: Sonate a tre [in b]
!!!XEN: Trio Sonata Opus 1, No. 6
!!!OPS: Opus 1
!!!ONM: No. 6
!!!OMV: Movement 3.
!!!YEC: Copyright 1994, Center for Computer Assisted Research in the Humanities
!!!YEM: Rights to all derivative electronic formats reserved.
!!!YEM: Refer to licensing agreement for further details.
!! For the following instrumentation: Violino I & II, Violone/Archlute,
!!    and Organo.
!! Adagio.
**kern	**kern	**kern	**kern
*ICklav	*ICstr	*ICstr	*ICstr
*Iorgan	*Icello	*Ivioln	*Ivioln
*	*Iarchl	*	*
!Organo	!Violone	!Violin 2	!Violin 1
!	! or	!	!
!	!Archlute	!	!
*clefF4	*clefF4	*clefG2	*clefG2
*k[f#c#]	*k[f#c#]	*k[f#c#]	*k[f#c#]
*b:	*b:	*b:	*b:
*M3/4	*M3/4	*M3/4	*M3/4
*MM48	*MM48	*MM48	*MM48
=1-	=1-	=1-	=1-
4r	4r	4r	4r
4B\	4B\	4dd\	4ff#\
4A#\	4A#\	4cc#\	4ff#\
=2	=2	=2	=2
2B\	2B\	2dd\	2ff#\
4B\	4B\	4dd\	4gg\
=3	=3	=3	=3
2A\	2A\	2cc#\	2ff#\
4G\	4G\	4b\	4ee\
=4	=4	=4	=4
2F#\	2F#\	2a#/	4ff#\
.	.	.	4cc#\
4F#\	4F#\	4a#/	[4ff#\
=5	=5	=5	=5
2G#\	2G#\	2b\	4ff#\]
.	.	.	4.ee\
4A#\	4A#\	4cc#\	.
.	.	.	8cc#\
=6	=6	=6	=6
2B\	2B\	4f#/	4dd\
.	.	4ff#\	(8dd\L
.	.	.	8cc#\J)
4BB/	4r	[4bb\	(8dd\L
.	.	.	8b\J)
=7	=7	=7	=7
2F#\	2.r	4bb\]	4cc#\
.	.	4.aa\	(8ff#\L
.	.	.	8ee\J)
4D\	.	.	[4ff#\
.	.	8ff#\	.
=8	=8	=8	=8
4BB/	2.r	2gg\	4ff#\]
2C#/	.	.	(8ee\L
.	.	.	8dd\J)
.	.	(8aa\L	[4ee\
.	.	8gg\J)	.
=9	=9	=9	=9
4D\	4r	2ff#\	4ee\]
4F#\	4F#\	.	4a/
[4B\	[4B\	4ff#\	4dd\
=10	=10	=10	=10
4B\]	4B\]	4ee\	2cc#\
4A\	4A\	(8ff#\L	.
.	.	8ee\J)	.
4F#\	4F#\	[4ff#\	(8dd\L
.	.	.	8cc#\J)
=11	=11	=11	=11
2G\	2G\	4ff#\]	2b\
.	.	(8ee\L	.
.	.	8dd\J)	.
4E\	4E\	[4ee\	(8cc#\L
.	.	.	8b\J)
=12	=12	=12	=12
2F#\	2F#\	4ee\]	2a/
.	.	(8dd\L	.
.	.	8cc#\J)	.
4D\	4D\	[4dd\	(8b/L
.	.	.	8a/J)
=13	=13	=13	=13
2E\	2E\	4dd\]	2g/
.	.	(8cc#\L	.
.	.	8b\J)	.
4AA/	4AA/	4cc#\	(8a/L
.	.	.	8g/J)
=14	=14	=14	=14
2D\	2D\	2dd\	2f#/
4FF#/	4FF#/	[4d/	4a/
=15	=15	=15	=15
4GG/	4GG/	4d/]	(8g/L
.	.	.	8f#/J)
2AA/	2AA/	4.d/	2e/
.	.	8c#/	.
=16	=16	=16	=16
4D\	4DD/	4d/	2d/
2D\	2D\	4f#/	.
.	.	4b\	4r
=17	=17	=17	=17
4C#/	4C#/	2a#/	4r
2AA#/	2AA#/	.	4cc#\
.	.	4r	4ff#\
=18	=18	=18	=18
4BB/	4BB/	4r	4dd\
2BB/	2BB/	4ff#\	4dd\
.	.	[4bb\	4gg#\
=19	=19	=19	=19
2C#/	2C#/	4bb\]	4ee#\
.	.	(8aa\L	4cc#\
.	.	8gg#\J)	.
4AA/	4AA/	(8ff#\L	[4ff#\
.	.	8gg#\J)	.
=20	=20	=20	=20
4BB/	4BB/	(8aa\L	4ff#\]
.	.	8bb\J)	.
2C#/	2C#/	4.gg#\	4.ff#\
.	.	8gg#\	8ee#\
=21	=21	=21	=21
4FF#/	4FF#/	4ff#\	2ff#\
4F#\	4F#\	4a/	.
4A\	4A\	4cc#\	4r
=22	=22	=22	=22
4D\	4D\	2f#/	4r
4d\	4d\	.	4ff#\
4c#\	4c#\	4r	4aa\
=23	=23	=23	=23
2B\	2B\	4r	4dd\
.	.	4ff#\	[2dd\
4G\	4G\	4bb\	.
=24	=24	=24	=24
2.A\	2.A\	[2.ee\	4dd\]
.	.	.	4cc#\
.	.	.	4b\
=25	=25	=25	=25
2.A#\	2.A#\	4ee\]	[2.cc#\
.	.	4ff#\	.
.	.	4ee\	.
=26	=26	=26	=26
2B\	2B\	2.dd\	4cc#\]
.	.	.	4f#/
4BB/	4BB/	.	[4b\
=27	=27	=27	=27
2F#\	2F#\	4cc#\	4b\]
.	.	4cc#\	4.a/
4D\	4D\	[4ff#\	.
.	.	.	8f#/
=28	=28	=28	=28
2E\	2E\	4ff#\]	2g#/
.	.	4.ee\	.
4E\	4E\	.	4cc#\
.	.	8ee\	.
=29	=29	=29	=29
2F#\	2F#\	4.ee\	4a#/
.	.	.	4f#/
.	.	8ff#\	.
4D\	4D\	(8gg\L	[4b\
.	.	8ff#\J)	.
=30	=30	=30	=30
4E\	4E\	(8ee\L	4b\]
.	.	8dd\J)	.
2F#\	2F#\	4.cc#\	4.b\
.	.	8cc#\	8a#/
=31	=31	=31	=31
2BB/	2BB/	2b\	4b\
.	.	.	(8gg\L
.	.	.	8ff#\J)
4G\	4G\	(8ee\L	[4gg\
.	.	8dd\J)	.
=32	=32	=32	=32
2A\	2A\	2cc#\	4gg\]
.	.	.	(8ff#\L
.	.	.	8ee\J)
4F#\	4F#\	(8dd\L	[4ff#\
.	.	8cc#\J)	.
=33	=33	=33	=33
2G\	2G\	2b\	4ff#\]
.	.	.	(8ee\L
.	.	.	8dd\J)
4E\	4E\	(8cc#\L	[4ee\
.	.	8b\J)	.
=34	=34	=34	=34
2F#\	2F#\	4a#/	4.ee\]
.	.	4f#/	.
.	.	.	8ff#\
4D\	4D\	[4b\	(8gg\L
.	.	.	8ff#\J)
=35	=35	=35	=35
4E\	4E\	4b\]	(8ee\L
.	.	.	8dd\J)
2F#\	2F#\	4.b\	4.cc#\
.	.	8a#/	8b\
=36	=36	=36	=36
2BB/	2BB/	2b\	2b\
[4B\	[4B\	[4dd\	[4ff#\
=37	=37	=37	=37
4B\]	4B\]	4dd\]	4ff#\]
2G\	2G\	2b\	4.ee\
.	.	.	8ff#\
=38	=38	=38	=38
2.F#\	2.F#\	2.a#/	2.ff#\
==	==	==	==
*-	*-	*-	*-
!!!CDT: 1653/2/17/-1713/1/8
!!!OCY: Italia
!!!ODE: Queen Christina Alexandra of Sweden
!!!ODT: 1681//
!!!OPC: Roma; Rome
!!!AGN: trio sonata
!!!AST: baroque, chamber
!!!AMT: simple triple
!!!YOR1: J. Joachim & F. Chrysander (eds.) Les Oeuvre de Arcangelo Corelli
!!!YOR2: London: Augener & Co. 1871
!!!YOY: 1871
!!!AIN: archl cello organ violn
!!!EEV: 1.1
!!!RDT: 1993 August 23
!!!YER: 1994 December 14
!!!EMD: 1996 July 9
!!!YEN: United States of America
!!!EFL: 3/4
!!!ENC: Frances Bennion & Steven Rasmussen
!!!EED: W.B. Hewlett
!!!VTS: 3965174528
